src/assets/icons/adwaita/mimetypes/oasis-master-document-template.svg

<?xml version="1.0" encoding="UTF-8" standalone="no"?>
<svg
   height="128px"
   viewBox="0 0 128 128"
   width="128px"
   version="1.1"
   id="oasis_master_document_template_svg35"
   xmlns="http://www.w3.org/2000/svg"
   xmlns:svg="http://www.w3.org/2000/svg">
  <defs
     id="oasis_master_document_template_defs39" />
  <linearGradient
     id="oasis_master_document_template_a"
     gradientUnits="userSpaceOnUse"
     x1="36"
     x2="60"
     y1="68"
     y2="68">
    <stop
       offset="0"
       stop-color="#ed336c"
       id="oasis_master_document_template_stop2" />
    <stop
       offset="1"
       stop-color="#ffa348"
       id="oasis_master_document_template_stop4" />
  </linearGradient>
  <linearGradient
     id="oasis_master_document_template_b"
     gradientTransform="matrix(0 1 -1 0 144 -32)"
     gradientUnits="userSpaceOnUse"
     x1="72"
     x2="96"
     y1="68"
     y2="68">
    <stop
       offset="0"
       stop-color="#404ce6"
       id="oasis_master_document_template_stop7" />
    <stop
       offset="1"
       stop-color="#c061cb"
       id="oasis_master_document_template_stop9" />
  </linearGradient>
  <linearGradient
     id="oasis_master_document_template_c"
     gradientUnits="userSpaceOnUse"
     x1="68.84919"
     x2="95.257637"
     y1="84"
     y2="84">
    <stop
       offset="0"
       stop-color="#33d1c6"
       id="oasis_master_document_template_stop12" />
    <stop
       offset="1"
       stop-color="#1c25d8"
       id="oasis_master_document_template_stop14" />
  </linearGradient>
  <path
     style="display:inline;fill:#f6f5f4;fill-opacity:1;stroke:none;stroke-width:0.125;stroke-linejoin:round;stroke-miterlimit:4;stroke-dasharray:none;stroke-opacity:1;enable-background:new"
     clip-path="none"
     d="m 27.978072,8.0000006 h 50.000002 l 30.042896,29.9178934 10e-4,74.060006 c 8e-5,4.432 -3.6122,8.0221 -8.044196,8.0221 H 27.978011 c -4.431999,0 -7.999999,-3.568 -7.999999,-8.00001 V 16 c 0,-4.431999 3.568,-7.9999994 7.999999,-7.9999994 z"
     id="oasis_master_document_template_path4411" />
  <g
     id="oasis_master_document_template_g27623"
     transform="translate(-42.84528,135.33545)"
     style="stroke-width:0.25" />
  <g
     style="stroke-width:2.62472"
     transform="matrix(0.0952482,0,0,0.0952482,498.72128,-49.974552)"
     id="oasis_master_document_template_g27623-5" />
  <g
     id="oasis_master_document_template_g1893"
     transform="matrix(0.0952482,0,0,0.0952482,-624.92113,-414.82765)"
     style="stroke-width:2.62472" />
  <g
     style="stroke-width:0.25"
     transform="matrix(0.2447541,0,0,0.2447541,-257.6935,146.47785)"
     id="oasis_master_document_template_g1879" />
  <g
     transform="matrix(0.5,0,0,0.5,-638.4877,-382.02941)"
     id="oasis_master_document_template_g15395"
     style="display:inline;fill:#c0bfbc;stroke-width:2;enable-background:new" />
  <g
     style="display:inline;fill:#deddda;stroke-width:2;enable-background:new"
     id="oasis_master_document_template_g15401"
     transform="matrix(0.5,0,0,0.5,-638.4877,-381.02941)" />
  <g
     style="display:inline;fill:#c0bfbc;stroke-width:2;enable-background:new"
     id="oasis_master_document_template_g15421"
     transform="matrix(0.5,0,0,0.5,-641.4877,-345.02941)" />
  <g
     transform="matrix(0.5,0,0,0.5,-641.4877,-344.02941)"
     id="oasis_master_document_template_g15423"
     style="display:inline;fill:#deddda;stroke-width:2;enable-background:new" />
  <g
     id="oasis_master_document_template_g4417"
     transform="matrix(0.2447541,0,0,0.2447541,-413.21244,146.47785)"
     style="stroke-width:0.25" />
  <g
     style="stroke-width:2.62472"
     transform="matrix(0.0952482,0,0,0.0952482,-597.94532,-105.8707)"
     id="oasis_master_document_template_g4431" />
  <g
     aria-label="{}"
     id="oasis_master_document_template_text6392"
     style="font-size:56px;line-height:1.25;font-family:Cantarell;-inkscape-font-specification:Cantarell;letter-spacing:-2px"
     transform="translate(-258.3226,94.213748)" />
  <text
     xml:space="preserve"
     style="font-size:56px;line-height:1.25;font-family:'Source Code Pro';-inkscape-font-specification:'Source Code Pro'"
     x="-223.57693"
     y="135.18233"
     id="oasis_master_document_template_text18928"><tspan
       id="oasis_master_document_template_tspan18926" /></text>
  <path
     style="display:inline;vector-effect:none;fill:#deddda;fill-opacity:1;stroke:none;stroke-width:0.125;stroke-linecap:butt;stroke-linejoin:round;stroke-miterlimit:4;stroke-dasharray:none;stroke-dashoffset:0;stroke-opacity:1;enable-background:new"
     d="M 77.978074,8.0000006 V 30.000002 c 0,4.432 3.610527,7.923448 8.042527,7.923448 l 22.000369,-0.0055 z"
     id="oasis_master_document_template_path4413" />
  <path
     id="oasis_master_document_template_path1713"
     style="display:inline;fill:#000000;fill-opacity:0.0341939;stroke:none;stroke-width:1px;stroke-linecap:butt;stroke-linejoin:miter;stroke-opacity:1;enable-background:new"
     d="m 27.978012,8.0000006 c -4.432,0 -8,3.5680004 -8,8.0000004 v 94.666019 l 44,-102.6660194 z" />
  <path
     id="oasis_master_document_template_path1"
     style="display:inline;fill:#ffffff;fill-opacity:0.45554;stroke:none;stroke-width:1px;stroke-linecap:butt;stroke-linejoin:miter;stroke-opacity:1;enable-background:new"
     d="M 108.02197,110.77149 108.01997,37.917971 77.977003,8.0000006 H 63.977046 Z" />
  <path
     d="m 42.916658,57.919397 c -1.061833,0 -1.916667,0.854834 -1.916667,1.916667 v 15.333333 c 0,1.061834 0.854834,1.916667 1.916667,1.916667 h 15.333333 c 1.061833,0 1.916667,-0.854833 1.916667,-1.916667 V 72.129679 L 45.956491,57.919512 Z m 8.460166,0 8.789834,8.789834 v -6.873167 c 0,-1.061833 -0.854834,-1.916667 -1.916667,-1.916667 z"
     id="oasis_master_document_template_path3-2"
     style="fill:#d5d3cf;fill-opacity:1;fill-rule:evenodd;stroke-width:7.66667;stroke-linecap:round" />
  <path
     d="m 42.916658,84.752731 c -1.061833,0 -1.916667,0.854833 -1.916667,1.916666 v 15.333333 c 0,1.06183 0.854834,1.91667 1.916667,1.91667 h 15.333333 c 1.061833,0 1.916667,-0.85484 1.916667,-1.91667 V 98.963012 L 45.956491,84.752845 Z m 8.460166,0 8.789834,8.789833 v -6.873167 c 0,-1.061833 -0.854834,-1.916666 -1.916667,-1.916666 z"
     id="oasis_master_document_template_path4-9"
     style="fill:#d5d3cf;fill-opacity:1;fill-rule:evenodd;stroke-width:7.66667;stroke-linecap:round" />
  <path
     d="m 69.749991,57.919397 c -1.061833,0 -1.916667,0.854834 -1.916667,1.916667 v 15.333333 c 0,1.061834 0.854834,1.916667 1.916667,1.916667 h 15.333333 c 1.061833,0 1.916667,-0.854833 1.916667,-1.916667 V 72.129679 L 72.789824,57.919512 Z m 8.460167,0 8.789833,8.789834 v -6.873167 c 0,-1.061833 -0.854834,-1.916667 -1.916667,-1.916667 z"
     id="oasis_master_document_template_path5"
     style="fill:#d5d3cf;fill-opacity:1;fill-rule:evenodd;stroke-width:7.66667;stroke-linecap:round" />
  <path
     d="m 69.749991,84.752731 c -1.061833,0 -1.916667,0.854833 -1.916667,1.916666 v 15.333333 c 0,1.06183 0.854834,1.91667 1.916667,1.91667 h 15.333333 c 1.061833,0 1.916667,-0.85484 1.916667,-1.91667 V 98.963012 L 72.789824,84.752845 Z m 8.460167,0 8.789833,8.789833 v -6.873167 c 0,-1.061833 -0.854834,-1.916666 -1.916667,-1.916666 z"
     id="oasis_master_document_template_path6"
     style="fill:#d5d3cf;fill-opacity:1;fill-rule:evenodd;stroke-width:7.66667;stroke-linecap:round" />
</svg>

<svg xmlns="http://www.w3.org/2000/svg" width="128" height="128" viewBox="0 0 128 128"><path d="M27.978 8h50l30.043 29.918.001 74.06c0 4.432-3.612 8.022-8.044 8.022h-72c-4.432 0-8-3.568-8-8V16c0-4.432 3.568-8 8-8" style="display:inline;fill:#f6f5f4;fill-opacity:1;stroke:none;stroke-width:.125;stroke-linejoin:round;stroke-miterlimit:4;stroke-dasharray:none;stroke-opacity:1"/><path d="M77.978 8v22c0 4.432 3.61 7.923 8.043 7.923l22-.005z" style="display:inline;vector-effect:none;fill:#deddda;fill-opacity:1;stroke:none;stroke-width:.125;stroke-linecap:butt;stroke-linejoin:round;stroke-miterlimit:4;stroke-dasharray:none;stroke-dashoffset:0;stroke-opacity:1"/><path d="M27.978 8c-4.432 0-8 3.568-8 8v94.666L63.978 8z" style="display:inline;fill:#000;fill-opacity:.0341939;stroke:none;stroke-width:1px;stroke-linecap:butt;stroke-linejoin:miter;stroke-opacity:1"/><path d="m108.022 110.771-.002-72.853L77.977 8h-14Z" style="display:inline;fill:#fff;fill-opacity:.45554;stroke:none;stroke-width:1px;stroke-linecap:butt;stroke-linejoin:miter;stroke-opacity:1"/><path d="M42.917 57.92A1.91 1.91 0 0 0 41 59.835V75.17c0 1.062.855 1.917 1.917 1.917H58.25a1.91 1.91 0 0 0 1.917-1.917v-3.04l-14.21-14.21Zm8.46 0 8.79 8.79v-6.874a1.91 1.91 0 0 0-1.917-1.917zm-8.46 26.833A1.91 1.91 0 0 0 41 86.669v15.334c0 1.062.855 1.916 1.917 1.916H58.25a1.91 1.91 0 0 0 1.917-1.916v-3.04l-14.21-14.21Zm8.46 0 8.79 8.79v-6.874a1.91 1.91 0 0 0-1.917-1.916zM69.75 57.92a1.91 1.91 0 0 0-1.917 1.916V75.17c0 1.062.855 1.917 1.917 1.917h15.333A1.91 1.91 0 0 0 87 75.17v-3.04L72.79 57.92Zm8.46 0L87 66.71v-6.874a1.91 1.91 0 0 0-1.917-1.917zm-8.46 26.833a1.91 1.91 0 0 0-1.917 1.916v15.334c0 1.062.855 1.916 1.917 1.916h15.333A1.91 1.91 0 0 0 87 102.003v-3.04l-14.21-14.21Zm8.46 0 8.79 8.79v-6.874a1.91 1.91 0 0 0-1.917-1.916z" style="fill:#d5d3cf;fill-opacity:1;fill-rule:evenodd;stroke-width:7.66667;stroke-linecap:round"/></svg>
